dist/svg/circle-dot.svg

<!-- Generated by Trend Micro Style Portal -->
<svg version="1.1" xmlns="http://www.w3.org/2000/svg" width="16" height="16" viewBox="0 0 16 16">
  <title>circle-dot</title>
  <path fill="rgb(34,34,34)" d="M11 8c0 1.657-1.343 3-3 3s-3-1.343-3-3c0-1.657 1.343-3 3-3v0c1.657 0 3 1.343 3 3v0zM15 8c0 3.866-3.134 7-7 7s-7-3.134-7-7c0-3.866 3.134-7 7-7v0c3.866 0 7 3.134 7 7v0zM13.5 8c0-3.038-2.462-5.5-5.5-5.5s-5.5 2.462-5.5 5.5c0 3.038 2.462 5.5 5.5 5.5v0c3.036-0.004 5.496-2.464 5.5-5.5v-0z"></path>
</svg>

<svg width="16" height="16" viewBox="0 0 16 16" fill="rgb(34, 34, 34)" xmlns="http://www.w3.org/2000/svg"><title>circle-dot</title><path d="M11 8C11 9.657 9.657 11 8 11C6.343 11 5 9.657 5 8C5 6.343 6.343 5 8 5C9.657 5 11 6.343 11 8ZM15 8C15 11.866 11.866 15 8 15C4.134 15 1 11.866 1 8C1 4.134 4.134 1 8 1C11.866 1 15 4.134 15 8ZM13.5 8C13.5 4.962 11.038 2.5 8 2.5C4.962 2.5 2.5 4.962 2.5 8C2.5 11.038 4.962 13.5 8 13.5C11.036 13.496 13.496 11.036 13.5 8Z" fill="rgb(34, 34, 34)" fill-opacity="1.00"/></svg>
